src/assets/Cryptologos/euro-logo.svg

<svg width="26" height="26" viewBox="0 0 26 26" fill="none" xmlns="http://www.w3.org/2000/svg">
<path opacity="0.2" d="M25.9295 13.0002C25.9295 20.1422 20.1399 25.9318 12.9981 25.9318C5.8562 25.9318 0.0666046 20.1422 0.0666046 13.0002C0.0666046 5.85841 5.8562 0.0688171 12.9981 0.0688171C20.1399 0.0688171 25.9295 5.85841 25.9295 13.0002Z" fill="#F6D43D"/>
<path d="M16.6321 18.4035L16.3337 17.0485C16.3168 16.9688 16.2742 16.9091 16.2059 16.8695C16.132 16.8297 16.0582 16.8241 15.9844 16.8526L15.9417 16.8695L15.8393 16.895C15.7938 16.9063 15.7412 16.9192 15.6816 16.9333C15.6219 16.9476 15.5524 16.9616 15.4728 16.9759C15.3935 16.9901 15.3093 17.003 15.2215 17.0144C15.1334 17.0255 15.0384 17.0356 14.9361 17.0442C14.8337 17.0526 14.7315 17.0569 14.6292 17.0569C13.9076 17.0569 13.2584 16.8623 12.6817 16.4731C12.105 16.0838 11.6803 15.5568 11.4076 14.8922H14.7057C14.7683 14.8922 14.8251 14.871 14.8761 14.8282C14.9274 14.7857 14.9587 14.7332 14.9698 14.6705L15.1743 13.716C15.1915 13.631 15.1743 13.5542 15.1233 13.4859C15.0665 13.4177 14.9953 13.3836 14.9102 13.3836H10.9986C10.9816 12.9972 10.9816 12.699 10.9986 12.4887H15.1576C15.3111 12.4887 15.4019 12.4149 15.4303 12.2672L15.6348 11.2956C15.6518 11.2161 15.6322 11.1423 15.5752 11.074C15.5242 11.0059 15.4532 10.9716 15.3623 10.9716H11.3736C11.6577 10.3353 12.0838 9.83531 12.652 9.47167C13.2202 9.10794 13.8622 8.92618 14.5781 8.92618C14.6009 8.91484 14.6847 8.9177 14.8294 8.93472C14.9743 8.95167 15.0568 8.95884 15.0766 8.95597C15.0962 8.95316 15.1704 8.96173 15.2981 8.98149C15.426 9.00137 15.49 9.01134 15.49 9.01134L15.6391 9.04113C15.6818 9.04973 15.7145 9.05672 15.7372 9.06248L15.7713 9.07096C15.8451 9.09379 15.9131 9.08663 15.9758 9.04973C16.0384 9.01269 16.0782 8.95737 16.0953 8.88352L16.4618 7.52845C16.4787 7.45457 16.4701 7.38639 16.4362 7.32391C16.385 7.25561 16.3282 7.21301 16.2656 7.19603C15.743 7.06537 15.1916 7 14.6122 7C13.3394 7 12.2018 7.36373 11.1989 8.0909C10.1961 8.81812 9.50427 9.77842 9.12358 10.9715H8.28845C8.20887 10.9715 8.14358 10.997 8.09242 11.0482C8.0414 11.0993 8.01576 11.1646 8.01576 11.2442V12.2158C8.01576 12.2953 8.04131 12.3607 8.09242 12.4117C8.14361 12.4629 8.20899 12.4884 8.28845 12.4884H8.85949C8.84233 12.7612 8.83961 13.0593 8.8509 13.3833H8.28845C8.2146 13.3833 8.15069 13.4103 8.09672 13.4642C8.04278 13.5182 8.01576 13.5821 8.01576 13.6559V14.619C8.01576 14.693 8.04278 14.7567 8.09672 14.8108C8.15072 14.8648 8.2146 14.8916 8.28845 14.8916H9.09812C9.45606 16.1472 10.1322 17.1459 11.1265 17.8873C12.1209 18.629 13.2828 18.9996 14.6122 18.9996C14.7203 18.9996 14.8296 18.9969 14.9404 18.991C15.0515 18.9853 15.155 18.9767 15.2516 18.9655C15.3482 18.9542 15.4434 18.9416 15.5371 18.9273C15.6308 18.913 15.7161 18.899 15.7927 18.8845C15.8694 18.8704 15.9419 18.8563 16.01 18.8421C16.0782 18.8278 16.1393 18.8123 16.1934 18.7952C16.2473 18.7783 16.2926 18.7654 16.3296 18.7571C16.3666 18.7485 16.3964 18.7384 16.419 18.7273L16.4617 18.7187C16.5243 18.696 16.5726 18.6547 16.6066 18.595C16.6407 18.5356 16.6491 18.4716 16.6321 18.4035Z" fill="#FBE41A"/>
</svg>

<svg width="26" height="26" fill="none" xmlns="http://www.w3.org/2000/svg"><path opacity=".2" d="M25.93 13c0 7.142-5.79 12.932-12.932 12.932S.067 20.142.067 13 5.857.07 12.998.07C20.14.069 25.93 5.859 25.93 13z" fill="#F6D43D"/><path d="m16.632 18.404-.298-1.355a.26.26 0 0 0-.35-.196l-.042.016-.103.026-.157.038a5.311 5.311 0 0 1-1.052.124 3.433 3.433 0 0 1-3.222-2.165h3.298c.062 0 .12-.021.17-.064a.258.258 0 0 0 .094-.157l.204-.955a.277.277 0 0 0-.05-.23.266.266 0 0 0-.214-.102H11a7.687 7.687 0 0 1 0-.895h4.159c.153 0 .244-.074.272-.222l.205-.971a.25.25 0 0 0-.06-.222.251.251 0 0 0-.213-.102h-3.988a3.367 3.367 0 0 1 1.278-1.5 3.496 3.496 0 0 1 1.926-.546c.023-.011.107-.008.251.009.145.017.228.024.248.021.02-.003.093.006.221.025l.192.03.15.03.097.021.034.009a.25.25 0 0 0 .324-.187l.367-1.356a.283.283 0 0 0-.026-.204.324.324 0 0 0-.17-.128A6.796 6.796 0 0 0 14.612 7c-1.273 0-2.41.364-3.413 1.09a5.553 5.553 0 0 0-2.075 2.882h-.836a.265.265 0 0 0-.196.076.266.266 0 0 0-.076.196v.972c0 .08.025.145.076.196a.265.265 0 0 0 .196.076h.571c-.017.273-.02.571-.008.895h-.563a.262.262 0 0 0-.191.081.262.262 0 0 0-.081.192v.963c0 .074.027.138.08.192.055.054.119.08.192.08h.81c.358 1.256 1.034 2.255 2.028 2.996.995.742 2.157 1.113 3.486 1.113a6.167 6.167 0 0 0 .64-.035 8.236 8.236 0 0 0 .758-.123c.068-.014.13-.03.183-.047.054-.017.1-.03.137-.038a.424.424 0 0 0 .089-.03l.043-.008a.268.268 0 0 0 .145-.124.25.25 0 0 0 .025-.191z" fill="#FBE41A"/></svg>
